!!!Melodie: eigene
!!!Typ: Lied
**kern	**silbe	**silbe	**silbe	**silbe	**silbe	**silbe	**silbe	**silbe	**silbe	**silbe	**silbe
*clefG2	*lang:DE	*lang:DE	*lang:DE	*lang:DE	*lang:DE	*lang:DE	*lang:DE	*lang:DE	*lang:DE	*lang:DE	*lang:DE
*k[b-, e-, a-, d-]	*	*	*	*	*	*	*	*	*	*	*
2f	Herz#	Du	Was	Wie	Der	O	Ach	Ich	Ich	Weil’s	Wenn
4f	#lieb#	wirst	ist	wun#	From#	gro#	gro#	kann’s	wer#	a#	dort
4f	#ster	ge#	die	#der#	#me	#ße	#ßer	mit	#de	#ber	Herr
=	=	=	=	=	=	=	=	=	=	=	=
2e-	Je#	#gei#	Ur#	#bar#	stirbt,	Lieb’,	Kö#	mei#	dir	nicht	Je#
2c	#su,	#ßelt,	#sach'	#lich	der	O	#nig,	#nen	zu	be#	#su
=	=	=	=	=	=	=	=	=	=	=	=
4f	was	und	al#	ist	recht	Lieb’	groß	Sin#	Eh#	#steht	wird
4g	hast	mit	#ler	doch	und	ohn’	zu	#nen	#ren	in	vor
4a-	du	Dorn’	sol#	die#	rich#	al#	al#	nicht	al#	eig#	dei#
4b-	ver#	ge#	#cher	#se	#tig	#le	#len	er#	#les	#'nen	#nem
=	=	=	=	=	=	=	=	=	=	=	=
2b-	#broch#	#krö#	Pla#	Stra#	wan#	Ma#	Zei#	#rei#	wa#	Kräf#	Thro#
2g	#en,	#net,	#gen?	#fe:	#delt,	#ße,	#ten;	#chen,	#gen,	#ten,	#ne
=	=	=	=	=	=	=	=	=	=	=	=
2g	daß	ins	Ach,	der	der	die	wie	wo#	Kein	fest	auf
4a-	man	An#	mei#	gu#	Bö#	dich	kann	#mit	Kreuz	die	mei#
4b-	ein	#ge#	#ne	#te	#se	ge#	ich	doch	nicht	Be#	#nem
=	=	=	=	=	=	=	=	=	=	=	=
2cc	solch’	#sicht	Sün#	Hir#	lebt,	#bracht	g’nüg#	dein	ach#	#gier#	Haup#
2a-	scharf’	ge#	#den	#te	der	auf	#sam	Er#	#ten,	#den	#te
=	=	=	=	=	=	=	=	=	=	=	=
4dd-	Ur#	#schla#	ha#	lei#	wi#	die#	solch’	#bar#	kei#	an	steh’n
4dd-	#teil	#gen	#ben	#det	#der	#se	Treu’	#men	#ne	das	die
4cc	hat	und	dich	für	Gott	Mar#	aus#	zu	Schmach	Kreuz	Eh#
4cc	ge#	ver#	ge#	die	ge#	#ter#	#be#	ver#	und	zu	#ren#
=	=	=	=	=	=	=	=	=	=	=	=
2b-	#spro#	#höh#	#schla#	Scha#	#han#	#stra#	#rei#	#glei#	Pla#	hef#	#kro#
2a-	#chen?	#net,	#gen;	#fe,	#delt;	#ße;	#ten?	#chen;	#gen,	#ten,	#ne,
=	=	=	=	=	=	=	=	=	=	=	=
2a-	Was	du	Ich,	Die	der	Ich	Kein’s	Wie	nichts	so	dann
4g	ist	wirst	o	Schuld	Mensch	leb#	Men#	kann	von	gib	will
4f	die	mit	Herr	be#	ver#	#te	#schen	ich	Ver#	mir	ich
=	=	=	=	=	=	=	=	=	=	=	=
2e-	Schuld?	Es#	Je#	#zahlt	#dient	mit	Herz	dir	#fol#	dei#	dir,
2c	In	#sig	#su,	der	den	der	ver#	denn	#gung,	#nen	wenn
=	=	=	=	=	=	=	=	=	=	=	=
4e-	was	und	ich	Her#	Tod	Welt	#mag	dei#	nichts	Geist,	al#
4e-	für	mit	hab	#re,	und	in	es	#ne	von	der	#les
4f	Mis#	Gall’	dies	der	ist	Lust	aus#	Lie#	To#	mich	wird
4e-	#se#	ge#	ver#	Ge#	ent#	und	#zu#	#bes#	#des#	re#	wohl
=	=	=	=	=	=	=	=	=	=	=	=
2d-	#ta#	#trän#	#schul#	#rech#	#gang#	Freu#	#den#	#ta#	#schmer#	#gie#	klin#
2c	#ten	#ket,	#det,	#te,	#en,	#den,	#ken,	#ten	#zen	#re,	#gen
=	=	=	=	=	=	=	=	=	=	=	=
2cc	bist	ans	was	für	Gott	und	was	im	neh#	zum	Lob
4b-	du	Kreuz	du	sei#	wird	du	dir	Werk	#men	Gu#	und
4a-	ge#	ge#	er#	#ne	ge#	musst	zu	er#	zu	#ten	Dank
=	=	=	=	=	=	=	=	=	=	=	=
2g	#ra#	#hen#	#dul#	Knech#	#fang#	lei#	schen#	#stat#	Her#	füh#	sin#
2f	#ten?	#ket.	#det!	#te.	#en.	#den!	#ken.	#ten?	#zen.	#re.	#gen.
==	==	==	==	==	==	==	==	==	==	==	==
*-	*-	*-	*-	*-	*-	*-	*-	*-	*-	*-	*-
